X:170
T:Get it while you can
C:Danny Barnes Trio - Live youtube
N:solo Joe K. Walsh - Transcribed by Philippe Colleu
R:bluegrass
L:1/8
Q:1/4=230
M:4/4
K:C
"(116 bpm)"z4 zG Ac | "C"^d2 de c4 | z4 zG Ac | ^de f6 | z4 GA c2 | g/a3/2 g2 a2 g2 | 
d/^d/=d cG c/z/_B z2 | "G"zB c^c dB G^F | F2 D^F2^G Ac | "F"^d2 c=d zA c^G | G/F/D FD F3G | 
"C"^D/E/C z2 C4 | z_B, CE DF EF | GA _Bd Bc ef | "G"g2 ge g2 ga | "C"_be zc c2 G,2 | 
z2 eg gc' c'g | "F"a2 ^d=d cG c2 | G,/A,/A D2 {e}gc' c'e | d'2 e'c'2g fe/d/ | 
ec/z/ _BA [dB][dB] [c2A2] | "C"[_B3G3]A Bc zG/F/ | EC F2 ^FG A_B | "G"BG cG ^cA d2 | 
D2 D2 c[dG] f2 | "F"^ga ga fc2e | _b2 ae gf ^de | "C"cG zc ^FD =FD | E2 E2 DE F^F | 
Gc GG c2 GG | "G"A^d ^Fe cG F=F | "C"EC DB, CD E2 | F^F G2 A_B =Bd | [c8E8G,8] | 


